img/icons/Notebook.svg

<svg width="24" height="24" viewBox="0 0 24 24" fill="none" xmlns="http://www.w3.org/2000/svg">
<path d="M4.21799 5.09204L5.10899 5.54603L4.21799 5.09204ZM5.0918 4.21799L5.54579 5.10899L5.0918 4.21799ZM5.0918 19.782L5.54579 18.891H5.54579L5.0918 19.782ZM4.21799 18.908L3.32698 19.362H3.32698L4.21799 18.908ZM19.7822 18.908L18.8912 18.454L19.7822 18.908ZM18.9078 19.782L18.4538 18.891L18.9078 19.782ZM19.7822 5.09204L18.8912 5.54603V5.54603L19.7822 5.09204ZM18.9078 4.21799L19.3618 3.32698V3.32698L18.9078 4.21799ZM12 10C11.4477 10 11 10.4477 11 11C11 11.5523 11.4477 12 12 12V10ZM16 12C16.5523 12 17 11.5523 17 11C17 10.4477 16.5523 10 16 10V12ZM12 7C11.4477 7 11 7.44772 11 8C11 8.55228 11.4477 9 12 9V7ZM16 9C16.5523 9 17 8.55228 17 8C17 7.44772 16.5523 7 16 7V9ZM7 20C7 20.5523 7.44772 21 8 21C8.55228 21 9 20.5523 9 20H7ZM9 4C9 3.44772 8.55229 3 8 3C7.44772 3 7 3.44772 7 4L9 4ZM19 7.20001V16.8H21V7.20001H19ZM16.8002 19H7.2002V21H16.8002V19ZM5 16.8V7.20001H3V16.8H5ZM7.2002 5H16.8002V3H7.2002V5ZM5 7.20001C5 6.62346 5.00078 6.25119 5.02393 5.96785C5.04612 5.69619 5.0838 5.59548 5.10899 5.54603L3.32698 4.63805C3.13419 5.01643 3.06287 5.40964 3.03057 5.80499C2.99922 6.18866 3 6.65646 3 7.20001H5ZM7.2002 3C6.65663 3 6.18874 2.99922 5.80498 3.03057C5.40962 3.06286 5.01624 3.13416 4.63781 3.32698L5.54579 5.10899C5.59517 5.08383 5.69595 5.04613 5.9678 5.02393C6.25126 5.00078 6.62365 5 7.2002 5V3ZM5.10899 5.54603C5.205 5.35761 5.35788 5.20474 5.54579 5.10899L4.63781 3.32698C4.07306 3.61473 3.61447 4.07382 3.32698 4.63805L5.10899 5.54603ZM7.2002 19C6.62367 19 6.25127 18.9992 5.96782 18.9761C5.69598 18.9538 5.59519 18.9161 5.54579 18.891L4.63781 20.673C5.01623 20.8658 5.40959 20.9371 5.80496 20.9694C6.18873 21.0008 6.65662 21 7.2002 21V19ZM3 16.8C3 17.3436 2.99922 17.8114 3.03057 18.195C3.06287 18.5904 3.13419 18.9836 3.32698 19.362L5.10899 18.454C5.0838 18.4045 5.04612 18.3038 5.02393 18.0322C5.00078 17.7488 5 17.3766 5 16.8H3ZM5.54579 18.891C5.35784 18.7952 5.20498 18.6424 5.10899 18.454L3.32698 19.362C3.61449 19.9262 4.0731 20.3853 4.63781 20.673L5.54579 18.891ZM19 16.8C19 17.3767 18.9993 17.7489 18.9762 18.0323C18.954 18.304 18.9164 18.4046 18.8912 18.454L20.6732 19.362C20.8661 18.9835 20.9373 18.5902 20.9695 18.1949C21.0008 17.8113 21 17.3435 21 16.8H19ZM16.8002 21C17.3438 21 17.8115 21.0008 18.1951 20.9694C18.5904 20.9371 18.9835 20.8657 19.3618 20.673L18.4538 18.891C18.4043 18.9162 18.3036 18.9539 18.0321 18.9761C17.7489 18.9992 17.3767 19 16.8002 19V21ZM18.8912 18.454C18.7956 18.6417 18.6424 18.7949 18.4538 18.891L19.3618 20.673C19.9258 20.3856 20.3854 19.9269 20.6732 19.362L18.8912 18.454ZM21 7.20001C21 6.65656 21.0008 6.18875 20.9696 5.80515C20.9373 5.40986 20.8661 5.01654 20.6732 4.63805L18.8912 5.54603C18.9164 5.59536 18.954 5.69598 18.9762 5.96769C18.9993 6.2511 19 6.62336 19 7.20001H21ZM16.8002 5C17.3768 5 17.7489 5.00078 18.0321 5.02393C18.3036 5.04611 18.4043 5.08377 18.4538 5.10899L19.3618 3.32698C18.9835 3.13421 18.5904 3.06288 18.1951 3.03057C17.8115 2.99922 17.3437 3 16.8002 3V5ZM20.6732 4.63805C20.3854 4.07315 19.9259 3.61439 19.3618 3.32698L18.4538 5.10899C18.6424 5.20508 18.7956 5.35828 18.8912 5.54603L20.6732 4.63805ZM12 12H16V10H12V12ZM12 9H16V7H12V9ZM9 20L9 4L7 4L7 20H9Z" fill="#5D5D62"/>
</svg>

<svg width="24" height="24" fill="none" xmlns="http://www.w3.org/2000/svg"><path d="m4.218 5.092.891.454-.891-.454Zm.874-.874.454.891-.454-.891Zm0 15.564.454-.891-.454.891Zm-.874-.874-.891.454.891-.454Zm15.564 0-.89-.454.89.454Zm-.874.874-.454-.891.454.891Zm.874-14.69-.89.454.89-.454Zm-.874-.874.454-.891-.454.891ZM12 10a1 1 0 1 0 0 2v-2Zm4 2a1 1 0 1 0 0-2v2Zm-4-5a1 1 0 1 0 0 2V7Zm4 2a1 1 0 1 0 0-2v2ZM7 20a1 1 0 1 0 2 0H7ZM9 4a1 1 0 1 0-2 0h2Zm10 3.2v9.6h2V7.2h-2ZM16.8 19H7.2v2h9.6v-2ZM5 16.8V7.2H3v9.6h2ZM7.2 5h9.6V3H7.2v2ZM5 7.2c0-.577 0-.949.024-1.232.022-.272.06-.373.085-.422l-1.782-.908c-.193.378-.264.772-.296 1.167C2.999 6.189 3 6.656 3 7.2h2ZM7.2 3c-.543 0-1.011 0-1.395.03-.395.033-.789.104-1.167.297l.908 1.782c.05-.025.15-.063.422-.085C6.25 5 6.624 5 7.2 5V3ZM5.11 5.546a1 1 0 0 1 .437-.437l-.908-1.782a3 3 0 0 0-1.311 1.311l1.782.908ZM7.2 19c-.576 0-.949 0-1.232-.024-.272-.022-.373-.06-.422-.085l-.908 1.782c.378.193.772.264 1.167.296.384.032.852.031 1.395.031v-2ZM3 16.8c0 .544 0 1.011.03 1.395.033.395.104.789.297 1.167l1.782-.908c-.025-.05-.063-.15-.085-.422C5 17.75 5 17.377 5 16.8H3Zm2.546 2.091a1 1 0 0 1-.437-.437l-1.782.908a3 3 0 0 0 1.31 1.311l.909-1.782ZM19 16.8c0 .577 0 .949-.024 1.232-.022.272-.06.373-.085.422l1.782.908c.193-.378.264-.772.297-1.167.03-.384.03-.852.03-1.395h-2ZM16.8 21c.544 0 1.011 0 1.395-.03.395-.033.788-.104 1.167-.297l-.908-1.782c-.05.025-.15.063-.422.085C17.75 19 17.377 19 16.8 19v2Zm2.091-2.546a1 1 0 0 1-.437.437l.908 1.782a3 3 0 0 0 1.311-1.311l-1.782-.908ZM21 7.2c0-.543 0-1.011-.03-1.395-.033-.395-.104-.788-.297-1.167l-1.782.908c.025.05.063.15.085.422C19 6.25 19 6.623 19 7.2h2ZM16.8 5c.577 0 .949 0 1.232.024.272.022.372.06.422.085l.908-1.782c-.378-.193-.772-.264-1.167-.296C17.811 2.999 17.344 3 16.8 3v2Zm3.873-.362a3 3 0 0 0-1.311-1.311l-.908 1.782a1 1 0 0 1 .437.437l1.782-.908ZM12 12h4v-2h-4v2Zm0-3h4V7h-4v2ZM9 20V4H7v16h2Z" fill="#5D5D62"/></svg>
